X:1
T:Title
%%score ( 1 2 ) ( 3 4 )
L:1/8
Q:1/4=90
M:3/8
K:Ab
V:1 treble nm="Grand Piano, Soprano"
V:2 treble 
V:3 bass nm="Choir Pad, Marbella, G. Sandison, 1902"
V:4 bass 
V:1
 [CE][A,C][B,D] | [CE]2 [DF] | [CE]2 [CA] | [CE]2 z | [Ec][EB][EA] | [DG]2 [DB] | [CA]3- | %7
w: By~George~Henry~Sandison,~1902 * *|||||||
 [CA]2 z | [EG][EG][EA] | [EB]2 [EA] | [EG]2 [=DF] | [EG]2 z | [B,=D]E[EF] | G2 z | E3- | E2 z | %16
w: |||||||||
 [DB][C=A][DB] | [Ec]2 [DB] | [CA]2 [A,C] | [CE]2 z | [Ec][=D_c][E=c] | [Fd]2 [Ec] | B3- | B2 z | %24
w: ||||||||
 [Ee][Ec][DB] | [CA]2 [_Gc] | [Fd]2 [DF] | [CE]2 z | [=DA][DG][DA] | [Ec]2 [DB] | [CA]3- | [CA]3- | %32
w: ||||||||
 [CA] z z |] %33
w: |
V:2
 x3 | x3 | x3 | x3 | x3 | x3 | x3 | x3 | x3 | x3 | x3 | x3 | x3 | EC[=DF] | x3 | x3 | x3 | x3 | %18
 x3 | x3 | x3 | x3 | =D3 | E2 z | x3 | x3 | x3 | x3 | x3 | x3 | x3 | x3 | x3 |] %33
V:3
 [A,,A,][A,,E,][A,,E,] | E,A,[A,,A,] | [A,,A,]2 [A,,E,] | [A,,A,]2 z | [A,,A,][B,,G,][C,A,] | %5
 [E,B,]2 [E,G,] | [A,,A,]3- | [A,,A,]2 z | [E,B,][E,B,][E,C] | [E,D]2 [E,C] | [E,B,]2 [B,,B,] | %11
 [E,B,]2 z | [F,A,][G,B,][A,C] | B,2 [B,,A,] | [E,G,]3- | [E,G,]2 z | [E,G,][E,G,][E,G,] | %17
 [E,A,]E,[E,G,] | [A,,A,]2 [A,,E,] | [A,,A,]2 z | [F,=A,][F,A,][F,A,] | [F,=A,]2 [F,A,] | B,2 A, | %23
 [E,G,]2 z | [C,A,][A,,A,][E,G,] | [F,A,]2 [E,A,] | [D,A,]2 [F,A,] | A,2 z | [F,C][F,B,][=E,A,] | %29
 [E,G,]2 [E,G,] | [A,,A,]3- | [A,,A,]3- | [A,,A,] z z |] %33
V:4
 x3 | A,,2 z | x3 | x3 | x3 | x3 | x3 | x3 | x3 | x3 | x3 | x3 | x3 | x3 | x3 | x3 | x3 | x3 | x3 | %19
 x3 | x3 | x3 | B,,3 | x3 | x3 | x3 | x3 | x3 | x3 | x3 | x3 | x3 | x3 |] %33

